X:02
T:Fiddlesticks Hornpipe. JBu.02
T:North Star,aka. JBu.02, The
O:England,South Yorkshire
S:Joshua Burnett’s MS,c1835,S.Yorkshire
M:C
L:1/8
Q:1/2=90
R:.hornpipe
Z:vmp.R.Greig.2010
K:Bb
dc|BFDFB2dc|BFDFB2dB|cBcd edcB|Acf2f2dc|
BFDF B2dc|BFDFB2dB|efgf edcB|d2B2B2:|
|:fe|defd gfed|e2c2c2ed|cdec fedc|d2B2B2dc|
BFDFB2dc|BFDF[B2b2]bf|gfed fecA|c2B2B2:|

